status/24/audio-volume-muted-symbolic.svg

<svg xmlns="http://www.w3.org/2000/svg" viewBox="0 0 24 24"><path d="M9 6l-4 4H3v5h2l4 4V6zm3 4v1l1.5 1.5L12 14v1h1l1.5-1.5L16 15h1v-1l-1.5-1.5L17 11v-1h-1l-1.5 1.5L13 10h-1z" color="#bebebe" overflow="visible" opacity=".4" fill="#bebebe"/></svg>

<?xml version="1.0" encoding="UTF-8" standalone="no"?>
<svg
   xmlns:dc="http://purl.org/dc/elements/1.1/"
   xmlns:cc="http://creativecommons.org/ns#"
   xmlns:rdf="http://www.w3.org/1999/02/22-rdf-syntax-ns#"
   xmlns:svg="http://www.w3.org/2000/svg"
   xmlns="http://www.w3.org/2000/svg"
   version="1.1"
   width="24"
   height="24"
   id="svg3899">
  <defs
     id="defs3901" />
  <metadata
     id="metadata3904">
    <rdf:RDF>
      <cc:Work
         rdf:about="">
        <dc:format>image/svg+xml</dc:format>
        <dc:type
           rdf:resource="http://purl.org/dc/dcmitype/StillImage" />
        <dc:title />
      </cc:Work>
    </rdf:RDF>
  </metadata>
  <path
     style="color:#bebebe;display:inline;overflow:visible;visibility:visible;opacity:0.4;fill:#bebebe;fill-opacity:1;fill-rule:nonzero;stroke:none;stroke-width:1.82310748;marker:none;enable-background:accumulate"
     d="M 9 6 L 5 10 L 3 10 L 3 15 L 5 15 L 9 19 L 9 6 z M 12 10 L 12 11 L 13.5 12.5 L 12 14 L 12 15 L 13 15 L 14.5 13.5 L 16 15 L 17 15 L 17 14 L 15.5 12.5 L 17 11 L 17 10 L 16 10 L 14.5 11.5 L 13 10 L 12 10 z "
     id="path3934-0-6-7" />
</svg>
